X: 10351
T: Don't Spill The Juice!
R: jig
M: 6/8
K: Gmajor
|:GAB cBA|Ggf edB|GAB dBA|FDD D2D|
GAB cBA|Ggf edB|cGc BGB|1 AFD G2D:|2 AFD G2e||
|:ede efg|dBB B2G|cBc cde|d^cd d2e|
ede efg|dBB B2G|cGc BGB|1 AFD G2e:|2 AFD G2D||

